X:1
T:Christmas
T:Christmas Medley
%%score 1 2 3 4
L:1/8
Q:1/4=108
M:3/4
K:Bb
V:1 bass nm="Trombone" snm="Tbn."
V:2 bass nm="Trombone" snm="Tbn."
V:3 bass nm="Trombone" snm="Tbn."
V:4 bass nm="Trombone" snm="Tbn."
V:1
!mf!"^Legato"!<(! E,2!<)! | D4 A,2 | C2 B,2 G,2 | F,2- F,2 G,2 |!>(! F,3 z F,2!>)! | %5
!<(! E,2 A,2 B,2!<)! | B,2 C2 D2 | C6- |!>(! C3 z!<(! F,2!>)!!<)! | D4 A,2 | C2 B,2 G,2 | F,4 G,2 | %12
 F,4 F,2 | G,4 G,2 | A,2 G,2 F,2 | B,6- | B,3 z!p! D2 | D4 D,2 | D,2 =E,2 ^F,2 |!<(! G,4 A,2!<)! | %20
 B,4 D2 | C2 B,2 A,2 | G,2 A,2 G,2 | F,6- | F,3 z F,2 | D4 A,2 | C2 B,2 G,2 | F,4 G,2 | F,4 F,2 | %29
 G,4 G,2 | A,2 G,2 F,2 |"^Ritardando\n" B,6 | F4 F2 |[Q:1/4=96]!mp! F3 E D2 |"_cresc." D2 C2 B,2 | %35
 B,2 A,2 G,2 |!>(! F,4 z2!>)! | F,2 F,3 G, | F,2 F,2 C2 | A,2 G,2 F,2 | B,2 D4- | D2 z2 F2 | %42
 F3 E D2 |"_cresc." D2 C2 B,2 | B,2 A,2 G,2 | F,4 z2 | F,2 E3 D | C2 D2 C2 | B,2 C2 G,2 | A,2 B,4 | %50
 B,6 |!<(! C6!<)! | D6 | F6 |[K:Eb][M:2/2][Q:1/2=60]!f! E6 E2 | E4 E4 | C8 | D8 | F,6 F,2 | %59
 G,4 A,4 | F,8 | A,8 | B,8 | E4 C4 | E8 | E8 | B,8 | E8 | C8- | C4 z4 | C6 E2 | C4 C4 | A,8 | B,8 | %74
 C8 | _D8 |"_cresc." E8 | D8 | C8 | D4 E4 | E8 | E8 | D8 |!<(! D8!<)! |!ff! G8 |!mp! C,8 | %86
!p! !fermata!B,,8 |] %87
V:2
!mp!!<(! F2!<)! | B,4 C2 | E2 D2 E2 | E2 D2 F2 |!>(! D3 z D2!>)! |!<(! D2 C2 B,2!<)! | %6
 D,2 A,2 B,2 | F6- |!>(! F3 z!<(! F2!>)!!<)! | B,4 B,2 | C4 E2 | D4 F2 | D4 D2 | E4 E2 | F4 F,2 | %15
 D6 | C3 z!pp! B,2- | B,4 D2 | D2 D2 B,A, |!<(! G,4 ^F,2!<)! | G,4 F2 | F6 | F6 | B,4 G,2 | %24
 A,3 z B,2 | B,4 F,2 | F,2 ^F,2 B,2 | B,4 C2 | B,4 G,2 | C4 E2 | D2 F,2 C2 |"^Ritardando\n" C6- | %32
 C4 D2 |!p! D3 C B,2 |"_cresc." B,2 A,2 G,2 | G,2 D,2 E,2 |!>(! D,4 z2!>)! | D,2 C,4- | C,2 C,4- | %39
 C,2 E,4- | E,2 D,4- | D,2 z2 E2 | D3 C G,2 |"_cresc." B,2 A,2 G,2 | F,2 E,2 F,2 | B,4 z2 | %46
 F,2 B,4 | A,6 | G,6 | F,6 | G,6 |!<(! _A,6!<)! | _A,6 | B,6 |[K:Eb][M:2/2]!fff!!ff! G,6 A,2 | %55
 B,4 G,4 | E,8 | D,8 | C,6 D,2 | E,4 C,4 | B,,8- | B,,8 | E,6 F,2 | G,4 E,4 | C8 | B,8 | G,4 F,4 | %67
 B,6 E,2 | A,8- | A,4 z4 | G,6 C2 | B,4 E,4 | _D,8 | C,8 | E,4 E,4 | A,4 C,4 |"_cresc." B,,8- | %77
 B,,8 | E,6 F,2 | G,4 E,4 | E,4 F,4 | G,4 A,4 | B,8 |!<(! B,4 B,4!<)! |!fff! E8 |!mp! F,8 | %86
!p! !fermata!E,8 |] %87
V:3
!mp!!<(! F,2!<)! | F,4 ^F,2 | G,6 | E,2 D,4 |!>(! F,3 z D,2!>)! |!<(! E,4 ^F,2!<)! | ^F,2 F,2 B,2 | %7
 A,6- |!>(! A,3 z!<(! F,2!>)!!<)! | F,4 ^F,2 | G,6 | F,4 E,2 | D,4 D,2 | C,4 C,2 | F,2 G,2 A,2 | %15
 F,6- | F,3 z!pp! G,2 | ^F,4 F,2 | ^F,2 G,2 A,2 |!<(! D,4 E,2!<)! | D,4 G,2 | D,6 | C,6 | C,6- | %24
 C,3 z F,2 | F,4 F,2 | E,4 E,2 | D,4 F,2 | D,4 D,2 | E,4 E,2 | F,4 F,,2 |"^Ritardando\n" D,6 | %32
 A,6 |!p! F,6 |"_cresc." F,6 | E,6 |!>(! D,4 z2!>)! | B,,2 A,,4- | A,,2 A,,4- | A,,2 C,2 C,2 | %40
 E,2 B,,4- | B,,2 z2 B,2 | B,3 B, B,2 |"_cresc." G,2 C,2 D,2 | E,4 F,2 | D,4 z2 | F,2 F,3 F, | %47
 F,2 F,2 F,2 | F,2 F,2 F,2 | E,2 E,4 | E,6 |!<(! E,6!<)! | E,6 | E,6 |[K:Eb][M:2/2]!f! E,6 E,2 | %55
 G,4 B,4 | A,8 | F,8 | A,8 | F,8 | D,4 E,4 | E,4 F,4 | A,8 | B,8 | z8 | G,8 | E,8 | D,8 | _D,8- | %69
 D,4 z4 | E,6 E,2 | E,8 | F,8 | F,4 =E,4 | C,8 | A,8 |"_cresc." F,8- | F,8 | C,8 | C,8 | E,8 | %81
 G,8 | G,8 |!<(! F,4 A,4!<)! |!ff! C8 |!mp! A,,8 |!p! !fermata!G,,8 |] %87
V:4
!mp!!<(! F,,2!<)! | D,6 | E,4 E,2 | B,,6 |!>(! B,,3 z B,,2!>)! |!<(! G,,2 A,,2 G,,2!<)! | %6
 B,,2 G,,2 C,2 | D,6 |!>(! C,3 z!<(! F,,2!>)!!<)! | D,4 B,,2 | E,4 E,2 | B,,4 A,,2 | G,,4 F,,2 | %13
 G,,4 G,,2 | C,2 B,,2 A,,2 | B,,6 | C,3 z!pp! D,2 | D,4 F,,2 | F,,2 G,,2 A,,2 |!<(! B,,4 C,2!<)! | %20
 B,,4 B,,2 | B,,6 | G,,6 | A,,6- | A,,3 z D,2 | B,,6 | C,6 | B,,4 A,,2 | B,,4 B,,2 | G,,4 G,,2 | %30
 F,,6 |"^Ritardando\n" B,,6 | A,,6 |!p! B,,6 |"_cresc." B,,6 | C,6 |!>(! B,,4 z2!>)! | B,,2 A,,4- | %38
 A,,2 A,,4- | A,,2 G,,2 A,,2 | G,,2 F,,4- | F,,2 z2 G,,2 | B,,6 |"_cresc." B,,6 | C,4 E,2 | %45
 B,,4 z2 | D,2 E,4- | E,2 D,4- | D,2 C,4 | A,,2 B,,4 | B,,6 |!<(! _A,,6!<)! | _A,,6 | _A,,6 | %54
[K:Eb][M:2/2]!f! B,,6 B,,2 | C,4 B,,4 | A,,8 | A,,4 B,,4 | A,,8 | A,,4 A,,4 | A,,8- | A,,8 | B,,8 | %63
 E,4 A,,4 | z8 | B,,8 | B,,8 | G,,8 | A,,8- | A,,4 z4 | G,,6 A,,2 | A,,4 A,,4 | B,,8 | B,,8 | %74
 A,,8 | B,,8 |"_cresc." A,,8 | B,,8 | A,,8 | B,,8 | E,,8 | E,,8 | F,8 |!<(! B,,8!<)! |!ff! A,,8 | %85
!mp! F,,8 |!p! !fermata!E,,8 |] %87

